X:131
T:On The Street Where You Live
C:
N:Don Stiernberg mando solo TablEdited by Gregory J. Thomas
L:1/8
Q:1/4=155
M:4/4
K:C
z8 | z2 GG gG3 | z3G f2 ed | G2 ^G2 A4 | z4 zF EF | ED CA, CD EC | D^D ^FA cd ^dc | 
d4 z_B (3=B_BA | G^F =F6 | z2 A,D F2 Ac | d2 c^G z4 | zG A2 cd c^d | ec' za z3D | 
^Fe cF ec FA | FB AF eB FB | ^de g2 a2 b2 | c'2 d'2 d'e' gc | g3G e3F | d3E GA GA | 
cG AG z3E | zG E6 | z2 FE zC A,2 | E2 F^D z3E | FE ^D=D CA, _B,=B, | D^F GA Bc ^cd | 
z6 cd | ^G2 ge z4 | [^d^F][eG] [dF][eG] [dF][eG] z2 | a2 g6 | z4 (3EFD EC | D_B, =B,D G^F =FD | 
E2 G2 B2 dc | z8 | zB, E^G Bd zG | B^G Be z3c | d2 cA GF DC | D7/1F | (3^GFG (3FDF (3=GFG (3FDF | 
(3^GFG (3FDF =GF G^G | Ac ^d2 eg z2 | d'2 c'6 | d'2 c'^d ^g_b =bc' | z8 | ag ^g2 ^f2 e^d | 
e^d B6 | (3B^GE (3^cA^F ^d2 de | ^f2 ^g2 ag =ge | f2 ed z3c | BA G^F =F2 G2 | 
^DE G2 G,G, A,A, | zA, z2 G,A, B,C | ^DE z2 G,A, zA | zG z6 | G^G A2 cd ^d2 | 
eg a2 _b2 ag | (3gaz zg fg eg | d8 | [e4F4] [d4F4] | [g4^G4] [f4G4] | z^d eg (3d=dc AG | 
c2 c_B zB GF | ^F3A ce cA | FA Bd z4 | g^f =fe ^de cG | ^FG =F^F ^DE =DG, | 


